icons/themes/default/global-search.svg

<svg viewBox="0 0 20 20" fill="none" xmlns="http://www.w3.org/2000/svg">
<path fill-rule="evenodd" clip-rule="evenodd" d="M11.6651 5.66055C9.5272 5.66055 7.7941 7.39365 7.7941 9.53153C7.7941 11.6694 9.5272 13.4025 11.6651 13.4025C13.803 13.4025 15.5361 11.6694 15.5361 9.53153C15.5361 7.39365 13.803 5.66055 11.6651 5.66055ZM6.6941 9.53153C6.6941 6.78613 8.91968 4.56055 11.6651 4.56055C14.4105 4.56055 16.6361 6.78613 16.6361 9.53153C16.6361 10.7061 16.2287 11.7855 15.5476 12.6362L17.1823 14.271L17.5712 14.6599L16.7934 15.4377L16.4045 15.0488L14.7697 13.414C13.919 14.0952 12.8396 14.5025 11.6651 14.5025C8.91968 14.5025 6.6941 12.2769 6.6941 9.53153ZM2.44995 5.2679H2.99995H5.4757H6.0257V6.3679H5.4757H2.99995H2.44995V5.2679ZM2.44995 8.98153H2.99995H4.76834H5.31834V10.0815H4.76834H2.99995H2.44995V8.98153ZM2.44995 12.6952H2.99995H5.4757H6.0257V13.7952H5.4757H2.99995H2.44995V12.6952Z" fill="currentColor" />
</svg>

<svg xmlns="http://www.w3.org/2000/svg" fill="none" viewBox="0 0 20 20">
  <path fill="currentColor" fill-rule="evenodd" d="M11.665 5.66a3.871 3.871 0 1 0 0 7.743 3.871 3.871 0 0 0 0-7.742Zm-4.97 3.872a4.971 4.971 0 1 1 8.853 3.104l1.634 1.635.39.389-.779.778-.389-.39-1.634-1.634a4.971 4.971 0 0 1-8.076-3.882ZM2.45 5.268H6.026v1.1H2.45v-1.1Zm0 3.714H5.318v1.1H2.45v-1.1Zm0 3.713H6.026v1.1H2.45v-1.1Z" clip-rule="evenodd"/>
</svg>
